icon-themes/elementary_svg/cmd/lc_color.svg

<svg height="24" width="24" xmlns="http://www.w3.org/2000/svg" xmlns:xlink="http://www.w3.org/1999/xlink"><radialGradient id="a" cx="22.571428" cy="30.857143" gradientTransform="matrix(.706422 0 0 .13549598 -3.944954 13.928848)" gradientUnits="userSpaceOnUse" r="15.571428"><stop offset="0"/><stop offset="1" stop-opacity="0"/></radialGradient><linearGradient id="b" gradientTransform="matrix(.44548312 0 0 .41020481 1.815472 -.871437)" gradientUnits="userSpaceOnUse" x1="23.30562" x2="14.388516" y1="24.843527" y2="9.590224"><stop offset="0" stop-color="#1f1f1f"/><stop offset="1" stop-color="#5c5c5c"/></linearGradient><g transform="translate(0 2)"><ellipse cx="11.999999" cy="18.109867" fill="url(#a)" opacity=".2" rx="10.999999" ry="2.890133"/><path d="m15.299 13.7h-6.7170503l-1.1564 2.9h-3.0923782l6.3345005-15.1999997h2.877728l6.1092 15.1999997h-3.2337zm-5.919-2.3h5.0456l-2.25115-6.8762673z" style="stroke:#000;stroke-width:.866387;stroke-linecap:round;stroke-linejoin:round;opacity:.66;fill:url(#b)"/></g></svg>

<?xml version="1.0" encoding="UTF-8" standalone="no"?>
<svg
   xmlns:dc="http://purl.org/dc/elements/1.1/"
   xmlns:cc="http://creativecommons.org/ns#"
   xmlns:rdf="http://www.w3.org/1999/02/22-rdf-syntax-ns#"
   xmlns:svg="http://www.w3.org/2000/svg"
   xmlns="http://www.w3.org/2000/svg"
   xmlns:xlink="http://www.w3.org/1999/xlink"
   xmlns:sodipodi="http://sodipodi.sourceforge.net/DTD/sodipodi-0.dtd"
   xmlns:inkscape="http://www.inkscape.org/namespaces/inkscape"
   height="24"
   width="24"
   version="1.1"
   id="svg18"
   sodipodi:docname="lc_color.svg"
   inkscape:version="0.92.3 (unknown)">
  <metadata
     id="metadata24">
    <rdf:RDF>
      <cc:Work
         rdf:about="">
        <dc:format>image/svg+xml</dc:format>
        <dc:type
           rdf:resource="http://purl.org/dc/dcmitype/StillImage" />
      </cc:Work>
    </rdf:RDF>
  </metadata>
  <defs
     id="defs22">
    <linearGradient
       id="linearGradient2867-449-88-871-390-598-476-591-434-148-57-177-641-289-620-227-114-444-680-744-4-1-5">
      <stop
         id="stop5430-5-0-9"
         style="stop-color:#737373;stop-opacity:1"
         offset="0" />
      <stop
         id="stop5432-2-0-0"
         style="stop-color:#636363;stop-opacity:1"
         offset="0.26238" />
      <stop
         id="stop5434-9-6-8"
         style="stop-color:#4b4b4b;stop-opacity:1"
         offset="0.704952" />
      <stop
         id="stop5436-2-7-0"
         style="stop-color:#3f3f3f;stop-opacity:1"
         offset="1" />
    </linearGradient>
    <radialGradient
       inkscape:collect="always"
       xlink:href="#linearGradient2867-449-88-871-390-598-476-591-434-148-57-177-641-289-620-227-114-444-680-744-4-1-5"
       id="radialGradient854"
       cx="13"
       cy="0.93955761"
       fx="13"
       fy="0.93955761"
       r="8.0938864"
       gradientTransform="matrix(-2.8416513,1.3411753e-7,-1.2245512e-7,-2.5945509,49.941466,3.4377283)"
       gradientUnits="userSpaceOnUse" />
  </defs>
  <sodipodi:namedview
     pagecolor="#ffffff"
     bordercolor="#666666"
     borderopacity="1"
     objecttolerance="10"
     gridtolerance="10"
     guidetolerance="10"
     inkscape:pageopacity="0"
     inkscape:pageshadow="2"
     inkscape:window-width="1366"
     inkscape:window-height="706"
     id="namedview20"
     showgrid="true"
     inkscape:zoom="13.906433"
     inkscape:cx="4.2787457"
     inkscape:cy="8.2172096"
     inkscape:window-x="0"
     inkscape:window-y="0"
     inkscape:window-maximized="1"
     inkscape:current-layer="svg18">
    <inkscape:grid
       type="xygrid"
       id="grid834" />
  </sodipodi:namedview>
  <radialGradient
     id="a"
     cx="22.571428"
     cy="30.857143"
     gradientTransform="matrix(0.706422,0,0,0.13549598,-3.944954,13.928848)"
     gradientUnits="userSpaceOnUse"
     r="15.571428">
    <stop
       offset="0"
       id="stop2" />
    <stop
       offset="1"
       stop-opacity="0"
       id="stop4" />
  </radialGradient>
  <linearGradient
     id="b"
     gradientTransform="matrix(0.44548312,0,0,0.41020481,1.815472,-0.871437)"
     gradientUnits="userSpaceOnUse"
     x1="23.30562"
     x2="14.388516"
     y1="24.843527"
     y2="9.5902243"
     spreadMethod="pad">
    <stop
       offset="0"
       stop-color="#1f1f1f"
       id="stop7" />
    <stop
       offset="1"
       stop-color="#5c5c5c"
       id="stop9" />
  </linearGradient>
  <g
     id="g16">
    <ellipse
       cx="11.999999"
       cy="18.109867"
       rx="10.999999"
       ry="2.8901329"
       id="ellipse12"
       style="opacity:0.2;fill:url(#a)" />
    <path
       d="M 15.299,13.7 H 8.5819497 l -1.1564,2.9 H 4.3331715 L 10.667672,1.4000003 H 13.5454 L 19.6546,16.6 H 16.4209 Z M 9.38,11.4 h 5.0456 L 12.17445,4.5237327 Z"
       style="opacity:1;fill:url(#radialGradient854);fill-opacity:1;stroke:#000000;stroke-width:0.86638701;stroke-linecap:round;stroke-linejoin:round;stroke-opacity:0.58088235"
       id="path14"
       inkscape:connector-curvature="0" />
  </g>
</svg>
